!!!COM: Palestrina, Giovanni Perluigi da
!!!OPR: Missa Hodie Christus Natus Est
!!!OMD: Credo
!!!OTL: Crucifixus
**kern	**kern	**kern	**kern
*Ibass	*Itenor	*Itenor	*Icalto
!Bassus	!Tenor 2	!Tenor 1	!Altus
*clefF4	*clefGv2	*clefGv2	*clefG2
*k[]	*k[]	*k[]	*k[]
*G:mix	*G:mix	*G:mix	*G:mix
*M4/2	*M4/2	*M4/2	*M4/2
=63	=63	=63	=63
0C	0c	0e	0g
=64	=64	=64	=64
1C	1c	1g	1e
1F	1c	1f	1a
=65	=65	=65	=65
0C	0c	2e	2g
.	.	1e	1g
.	.	2c	2e
=66	=66	=66	=66
2r	2r	2d	2f
1c	1e	2e	2g
.	.	1c	1e
2A	2c	.	.
=67	=67	=67	=67
2B	2d	2G	2d
2c	2e	1g	2c
1A	1c	.	1cc
.	.	2f#	.
=68	=68	=68	=68
1G	2d	2.g	2b
.	2e	.	2g
.	.	8f	.
.	.	8e	.
1r	2.f	1d	2.a
.	4e	.	4g
=69	=69	=69	=69
1r	2d	1r	2f
.	2c	.	2e
1G	1g	1B	1d
=70	=70	=70	=70
2.A	1e	2.c	2c
.	.	.	2e
4G	.	4B	.
2F	1r	2A	4d
.	.	.	4c
2E	.	2G	[2g
=71	=71	=71	=71
1D	1d	2.A	2g]
.	.	.	2f
.	.	4B	.
1C	2.e	4c	2r
.	.	4B	.
.	.	4c	2g
.	4d	4d	.
=72	=72	=72	=72
0r	2c	4e	2.a
.	.	4c	.
.	2B	2d	.
.	.	.	4g
.	4A	1c	2f
.	4B	.	.
.	[2c	.	2e
=73	=73	=73	=73
1r	2c]	1G	1d
.	2B	.	.
[1C	1c	1r	1e
=74	=74	=74	=74
1C]	1e	1c	1g
1G	1d	1B	1g
=75	=75	=75	=75
1A	1c	4c	1e
.	.	4d	.
.	.	4e	.
.	.	4f	.
1B	1G	2g	1d
.	.	2g	.
=76	=76	=76	=76
1c	1g	1e	4c
.	.	.	4d
.	.	.	4e
.	.	.	4f
1C	1e	1c	2g
.	.	.	2g
*-	*-	*-	*-
!!!CDT: 1525/^1526/-1594/2/2
!!!OCY: Italia
!!!AGN: Mass (Parody)
!!!AST: renaissance, vocal
!!!ASW: Motet 1575 (Palestrina)
!!!PWK: Masses, Book 8vce
!!!RNB: Cadence finals: C,D
!!!YOR: Le Opere Complete, v. 30, p. 59
!!!YOO: Rome, Italy: Fratelli Scalera
!!!END: 1992//
!!!EED: John Miller
!!!YEC: Copyright 2000, John Miller
!!!YEN: United States of America
!!!YEM: Rights to all derivative electronic formats reserved.
!!!YEM: Refer to licensing agreement for further details.
!!!YEM: This file must be accompanied by the licensing agreement.
!!!YEM: A copy of the licensing agreement may be found at http://www.music-cog.ohio-state.edu/HumdrumDatabases/Palestrina/license.txt
!!!EMD: converted to Humdrum by Bret Aarden
